X: 709
T: Ey Gül
C: Tâhir Ağa
O: Turkey
F: http://compmusic.upf.edu/node/140
N: hicazkar--sarki--aksak--ey_gul--tahir_aga
N: makam= hicazkar
N: form= sarki
N: usul= aksak = 9/8
M: 9/8
L: 1/16
K: C _1/4B _7/8e _7/8A ^f
Q: 1/4=72
%%MIDI tuningsystem comma53
g8_b2=a2g2f2 | e2d2e2d2e2g2f2e2  | d2c2B6e2d2c2 | \
w:   |   |   | 
B4A2AGABA2G2G8z2d8 | 
w:   | 
e2d2c6=f3ag2  | =f2e3dc4z2cBc2 | dcd2ede2f4d2e2  | 
w:   |   |   | 
f2g2=a2g2f2g4z2 | z4g4_b2=a2g2f2  | e2d2e2d2e2g2f2e2 | 
w:   |   |   | 
d2c2B6e2d2c2  | B4A2AGABA2G2G4c6z4c4  | \
w:   |   | 
c4B4A2AGABA2 | 
w:   | 
G2G2=F2G4z2B3A  | A3GG2=F2B4AGG6d2c2B2c4z2  | \
w:   |   | 
c8=B4=A4 | 
w:   | 
G2G2A2=B2c2B2d2c6cBc2dcd2ede2 | f4d2e2def2efg2  | 
w:   |   | 
f=ag4z2z4g4 | =a4_b4a2g3c'b2  | =a2a2g2f2g2_b2a2g2 | \
w:   |   |   | 
f2e2d2c2B2c2e2d2  | 
w:   | 
c2B2c2B2A2G4z2 | c8=B4=A4  | G2G2A2=B2c2B2d2c6cBc2dcd2ede2  | 
w:   |   |   | 
f4d2e2def2efg2 | f=ag4z2z4g4  | =a4_b4a2g3c'b2 | 
w:   |   |   | 
=a2a2g2f2g2_b2a2g2  | f2g2f2g2_b4=agg8gagfg4z2  | 
w:   |   | 
z4g4_b2=a2g2f2 | e2d2e2d2e2g2f2e2  | \
w:   |   | 
d2c2B6e2d2c2 | B4A2AGABA2G2G4c6z4c4 | 
w:   |   | 
c4B4A2AGABA2  | G2G2=F2G4z2B3A | A3GG2=F2B4AGG6d2c2B2c4z2 | 
w:   |   |   | 
c8=B4=A4  | G2G2A2=B2c2B2d2c6cBc2dcd2ede2  | \
w:   |   | 
f4d2e2def2efg2 | 
w:   | 
f=ag4z2z4g4  | =a4_b4a2g3c'b2 | =a2a2g2f2g2_b2a2g2  | \
w:   |   |   | 
f2e2d2c2B2c2e2d2 | 
w:   | 
c2B2c2B2A2G4z2  | c8=B4=A4 | G2G2A2=B2c2B2d2c6cBc2dcd2ede2 | 
w:   |   |   | 
f4d2e2def2efg2  | f=ag4z2z4g4 | =a4_b4a2g3c'b2  | 
w:   |   |   | 
=a2a2g2f2g2_b2a2g2 | f2g2f2g2_b4=agg8gagfg4z2 | 
w:   |   | 
|


